!!!!SEGMENT: pl-kk--kk-i-15--014_anonim--haec-dies.krn
!!!cenid: 16xx:1131
!!!COM: Anonim
!!!COM-rismID: pe30004985
!!!CDT:
!!!CNT:
!!!OTL: Haec dies
!!!PDT:
!!!AGN: Sacred
!!!SMS-siglum: PL-Kk
!!!SMS-shelfmark: Kk.I.15
!!!SMS-shelfwork: 014 W
!!!SMS-variant:
!!!SMS-altvar:
!!!NIFC-rismSourceID: 1001147288
!!!NIFC-islandoraID: pl-kk:2631
!!!URL-pdf-islandora: https://repozytorium.nifc.pl/islandora/object/pl-kk%3A2631/datastream/PDF/view
!!!URL-scan: https://polish.musicsources.pl/pl/lokalizacje/galeria/rekopisy/5777 @EN{Scan on Polish Music Herritage in Open Access Website} @PL{Skany w portalu Dziedzictwo Muzyki Polskiej w otwartym dostępie}
!!!ONB-nifc: UWAGA: C (skan 0009-0010), A (skan 0027-0028), T (skan 0044), B (skan 0062). Następny motet: Surrexit pastor bonus
!!!AIN: 1 alto 1 empty 1 tenor 1 vox
!!!key:
**kern	**text	**kern	**text	**kern	**text	**kern	**text
*part4	*part4	*part3	*part3	*part2	*part2	*part1	*part1
*staff4	*staff4	*staff3	*staff3	*staff2	*staff2	*staff1	*staff1
*Iempty	*	*Itenor	*	*Ialto	*	*Ivox	*
*I"Baſso	*	*I"Tenore.	*	*I"Alto	*	*I"Canto.	*
*I'B	*	*I'T	*	*I'A	*	*I'S	*
*clefC4	*	*clefF4	*	*clefC1	*	*clefC3	*
*k[]	*	*k[]	*	*k[]	*	*k[]	*
*C:	*	*C:	*	*C:	*	*C:	*
*M2/1	*	*M2/1	*	*M2/1	*	*M2/1	*
*met(C|)	*	*met(C|)	*	*met(C|)	*	*met(C|)	*
=1-	=1-	=1-	=1-	=1-	=1-	=1-	=1-
*2\right	*	*2\right	*	*2\right	*	*2\right	*
!LO:TX:t=P:problem=2\, 4\, 8\right&colon; global	!	!	!	!	!	!	!
!LO:TX:t=P:problem=inicjał "H" na pięciolinii przed kluczem	!	!LO:TX:t=P:problem=inicjał "H" na pięciolinii przed kluczem	!	!LO:TX:t=P:problem=inicjał "H" na pięciolinii przed kluczem	!	!LO:TX:t=P:problem=inicjał "H" na pięciolinii przed kluczem	!
!LO:TX:a:t=cora	!	!LO:TX:t=P:problem=2\right or middle&colon; global	!	!	!	!LO:TX:t=P:problem=w tym utworze zaburzona kolejność głosów	!
!LO:TX:b:t=allegro	!	!LO:TX:t=P:problem=4\, 8\right&colon; global	!	!LO:TX:t=P:problem=2\, 4\, 8\right&colon; global	!	!	!
!LO:TX:a:t=9.	!	!	!	!	!	!LO:TX:t=P:problem=2\, 4\, 8\right&colon; global	!
00r	.	00r	.	1g	Haec	00r	.
!	!	!	!	!LO:TX:t=P:problem=kreska pseudotaktowa	!	!	!
!	!	!	!	!LO:TX:b:t=allegro	!	!	!
.	.	.	.	1cc	di-	.	.
=2-	=2-	=2-	=2-	=2-	=2-	=2-	=2-
!	!	!	!	!LO:TX:t=P:problem=rozdzielacz słów	!	!	!
.	.	.	.	2b,\	-es	.	.
!	!	!	!	!LO:TX:a:t=co2a	!	!	!
.	.	.	.	2g/	quam	.	.
.	.	.	.	2a\	fe-	.	.
!	!	!	!	!LO:TX:t=P:problem=kreska pseudotaktowa	!	!	!
.	.	.	.	2b\	-cit	.	.
=3-	=3-	=3-	=3-	=3-	=3-	=3-	=3-
00r	.	00r	.	1cc	D(o-	2r	.
!	!	!	!	!	!	!LO:TX:a:t=co2a	!
!	!	!	!	!	!	!LO:TX:t=P:problem=kreska pseudotaktowa	!
.	.	.	.	.	.	2c/	Haec
!	!	!	!	!LO:TX:t=P:problem=kreska pseudotaktowa	!	!	!
.	.	.	.	1a	-mi)-	1f	di-
=4-	=4-	=4-	=4-	=4-	=4-	=4-	=4-
.	.	.	.	2g/	-nus	2e\	-es
!	!	!	!	!LO:TX:t=P:problem=kreska pseudotaktowa	!	!LO:TX:t=P:problem=kreska pseudotaktowa	!
.	.	.	.	2a\	quam	2c/	quam
.	.	.	.	2b\	fe-	2d\	fe-
.	.	.	.	2cc\	-cit	2e\	-cit
=5-	=5-	=5-	=5-	=5-	=5-	=5-	=5-
!LO:TX:t=P:problem=kreska pseudotaktowa	!	!	!	!	!	!	!
1r	.	00r	.	4a\	Do-	1f	D(o-
.	.	.	.	4b\	.	.	.
.	.	.	.	4cc\	.	.	.
!	!	!	!	!LO:TX:t=P:problem=kreska pseudotaktowa	!	!	!
.	.	.	.	4a\	.	.	.
!	!	!	!	!	!	!LO:TX:t=P:problem=kreska pseudotaktowa	!
1G	Haec	.	.	2b\	.	1d	-mi)-
.	.	.	.	2b\	-mi-	.	.
=6-	=6-	=6-	=6-	=6-	=6-	=6-	=6-
!LO:TX:t=P:problem=kreska pseudotaktowa	!	!	!	!	!	!	!
1c	di-	.	.	2cc\	-nus	2c/	-nus
*	*	*	*	*custos:g	*	*	*
!	!	!	!	!LO:TX:t=P:problem=kreska pseudotaktowa	!	!	!
*	*	*	*	*	*ij	*	*
.	.	.	.	2g/	quam	2e\	quam
!	!	!	!	!LO:LB:g=original	!	!	!
2B\	-es	.	.	2.g/	fe-	2d\	fe-
!LO:TX:t=P:problem=kreska pseudotaktowa	!	!	!	!	!	!LO:TX:t=P:problem=kreska pseudotaktowa	!
2G/	quam	.	.	.	.	2B/	-cit
.	.	.	.	4g/	-cit	.	.
=7-	=7-	=7-	=7-	=7-	=7-	=7-	=7-
!LO:TX:a:t=co2a	!	!LO:TX:t=P:problem=kreska pseudotaktowa	!	!	!	!	!
2A/	fe-	1r	.	2f/	Do-	2c/	D(o-
!	!	!	!	!LO:TX:t=P:problem=kreska pseudotaktowa	!	!	!
2B\	-cit	.	.	2d/	-mi-	2d\	-mi)-
!LO:TX:t=P:problem=kreska pseudotaktowa	!	!	!	!LO:TX:t=P:problem=kreska pseudotaktowa	!	!	!
!	!	!	!	!	!	!LO:TX:t=P:problem=rozdzielacz słów	!
1c	D(o-	1C	Haec	1e	-nus	2G,/	-nus
*	*	*	*	*	*Xij	*	*
!	!	!	!	!	!	!LO:TX:t=P:problem=kreska pseudotaktowa	!
.	.	.	.	.	.	2g\	quam
=8-	=8-	=8-	=8-	=8-	=8-	=8-	=8-
1A	-mi)-	1F	di-	00r	.	2.c/	fe-
*	*	*	*	*	*	*custos:e	*
.	.	.	.	.	.	4d\	-cit
!	!	!	!	!	!	!LO:LB:g=original	!
!	!	!LO:TX:t=P:problem=rozdzielacz słów	!	!	!	!	!
2G/	-nus	2E,\	-es	.	.	2e\	fe-
!LO:TX:t=P:problem=kreska pseudotaktowa	!	!LO:TX:t=P:problem=kreska pseudotaktowa	!	!	!	!LO:TX:t=P:problem=kreska pseudotaktowa	!
2c\	quam	2C/	quam	.	.	2e\	-cit
=9-	=9-	=9-	=9-	=9-	=9-	=9-	=9-
2A/	fe-	2D/	fe-	.	.	2f\	Do-
2G/	-cit	2E\	-cit	.	.	4e\	.
!	!	!	!	!	!	!LO:TX:t=P:problem=kreska pseudotaktowa	!
.	.	.	.	.	.	4d\	.
2.A/	Do-	1F	D(o-	.	.	2.c/	.
!LO:TX:t=P:problem=kreska pseudotaktowa	!	!	!	!	!	!	!
4G/	.	.	.	.	.	8d\L	.
!	!	!	!	!	!	!LO:TX:t=P:problem=kreska pseudotaktowa	!
.	.	.	.	.	.	8e\J	.
=10-	=10-	=10-	=10-	=10-	=10-	=10-	=10-
!	!	!	!	!LO:TX:t=P:problem=kreska pseudotaktowa	!	!	!
2A/	-mi-	2D\	.	1r	.	2f\	.
!	!	!LO:TX:t=P:problem=kreska pseudotaktowa	!	!	!	!	!
2B\	.	2D\	-mi)-	.	.	2f\	-mi-
!LO:TX:t=P:problem=kreska pseudotaktowa	!	!	!	!	!	!LO:TX:t=P:problem=kreska pseudotaktowa	!
1c	-nus	2C,/	-nus	2r	.	1e,	-nus
!	!	!LO:TX:t=P:problem=kreska pseudotaktowa	!	!	!	!	!
.	.	2C/	quam	2g/	quam	.	.
=11-	=11-	=11-	=11-	=11-	=11-	=11-	=11-
*	*	*	*	*	*	*	*ij
2r	.	4F\	fe-	4a\	fe-	2f\	quam
.	.	4G\	.	4b\	.	.	.
2c\	quam	4A\	.	4cc\	.	4e\	fe-
!	!	!LO:TX:t=P:problem=kreska pseudotaktowa	!	!LO:TX:t=P:problem=kreska pseudotaktowa	!	!LO:TX:t=P:problem=kreska pseudotaktowa	!
.	.	4F\	.	4a\	.	4f\	-cit
*custos:G	*	*	*	*	*	*	*
2B\	fe-	2G\	.	2b\	.	2d\	Do-
!LO:LB:g=original	!	!	!	!	!	!	!
!	!	!LO:TX:t=P:problem=kreska pseudotaktowa	!	!	!	!LO:TX:t=P:problem=kreska pseudotaktowa	!
1G/	-cit	2G\	-cit	2b\	-cit	2d\	-mi-
=12-	=12-	=12-	=12-	=12-	=12-	=12-	=12-
.	.	2C/	D(o-	2cc\	D(o-	2e,\	-nus
!LO:TX:t=P:problem=kreska pseudotaktowa	!	!	!	!	!	!	!
2d\	D(o-	2D/	-mi)-	2a\	-mi)-	2f\	quam
!	!	!	!	!LO:TX:t=P:problem=kreska pseudotaktowa	!	!	!
2B\	-mi)-	2G,\	-nus	1g	-nus	2d\	fe-
!LO:TX:t=P:problem=rozdzielacze słów	!	!LO:TX:t=P:problem=kreska pseudotaktowa	!	!	!	!LO:TX:t=P:problem=kreska pseudotaktowa	!
2c,\	-nus	2C/	quam	.	.	2e\	-cit
=13-	=13-	=13-	=13-	=13-	=13-	=13-	=13-
*	*	*custos:G	*	*	*	*	*
2c\	D(o-	2F\	fe-	2r	.	2f\	Do-
!	!	!LO:LB:g=original	!	!	!	!	!
!LO:TX:t=P:problem=kreska pseudotaktowa	!	!	!	!	!	!	!
2B\	-mi)-	2G\	-cit	2g/	haec	2d\	-mi-
!	!	!	!	!LO:TX:t=P:problem=kreska pseudotaktowa	!	!LO:TX:t=P:problem=kreska pseudotaktowa	!
2c\	-nus	2.C/	D(o-	1cc	di-	1e	-nus
!LO:TX:t=P:problem=kreska pseudotaktowa	!	!	!	!	!	!	!
2G/	quam	.	.	.	.	.	.
!	!	!LO:TX:t=P:problem=kreska pseudotaktowa	!	!	!	!	!
.	.	4C/	-mi)-	.	.	.	.
!	!	!	!	!	!	!LO:LB:g=original	!
=14-	=14-	=14-	=14-	=14-	=14-	=14-	=14-
1G	fe-	2GG/	-nus	2b\	-es	2r	.
*	*	*	*ij	*	*	*	*
!	!	!	!	!LO:TX:t=P:problem=kreska pseudotaktowa	!	!	!
.	.	2C/	quam	2g/	quam	2e\	quam
2E/	-cit	2C/	fe-	2a\	fe-	2c/	fe-
*	*	*	*	*custos:cc	*	*	*
!	!	!LO:TX:t=P:problem=kreska pseudotaktowa	!	!	!	!LO:TX:t=P:problem=kreska pseudotaktowa	!
1G/	D(o-	2BB/	-cit	2b\	-cit	2d\	-cit
!	!	!	!	!LO:LB:g=original	!	!	!
=15-	=15-	=15-	=15-	=15-	=15-	=15-	=15-
.	.	2.AA/	D(o-	2.cc\	D(o-	2c/	Do-
!LO:TX:t=P:problem=kreska pseudotaktowa	!	!	!	!	!	!	!
2F/	-mi)-	.	.	.	.	2A/	-mi-
!	!	!	!	!LO:TX:t=P:problem=kreska pseudotaktowa	!	!	!
.	.	4AA/	-mi)-	4cc\	-mi)-	.	.
!LO:TX:t=P:problem=kreska pseudotaktowa	!	!	!	!	!	!	!
1G	-nus	2GG,/	-nus	2b\	-nus	2d,\	-nus
!	!	!LO:TX:t=P:problem=kreska pseudotaktowa	!	!	!	!LO:TX:t=P:problem=kreska pseudotaktowa	!
.	.	2G\	quam	2b\	quam	2g\	quam
=16-	=16-	=16-	=16-	=16-	=16-	=16-	=16-
2r	.	4A\	fe-	4cc\	fe-	2.e\	fe-
.	.	4G\	.	4b\	.	.	.
*	*ij	*	*	*	*	*	*
!LO:TX:t=P:problem=kreska pseudotaktowa	!	!	!	!	!	!	!
2c\	quam	4A\	.	4cc\	.	.	.
!	!	!	!	!LO:TX:t=P:problem=kreska pseudotaktowa	!	!	!
.	.	4F\	.	4a\	.	4f\	-cit
2B\	fe-	2G\	.	2b\	.	2d\	Do-
!LO:TX:t=P:problem=kreska pseudotaktowa	!	!LO:TX:t=P:problem=kreska pseudotaktowa	!	!	!	!	!
2e\	-cit	2C/	-cit	2cc\	-cit	1g\	.
=17-	=17-	=17-	=17-	=17-	=17-	=17-	=17-
2.d\	D(o-	2.D/	D(o-	2.a\	D(o-	.	.
!	!	!	!	!	!	!LO:TX:t=P:problem=kreska pseudotaktowa	!
.	.	.	.	.	.	2f\	-mi-
!	!	!	!	!LO:TX:t=P:problem=kreska pseudotaktowa	!	!	!
4d\	-mi)-	4D/	-mi)-	4a\	-mi)-	.	.
!	!	!LO:TX:t=P:problem=kreska pseudotaktowa	!	!	!	!	!
2d\	-nus	1GG	-nus	2b\	-nus	2g\	-nus
*	*	*	*Xij	*	*ij	*	*
*custos:A	*	*	*	*	*	*	*
!LO:TX:t=P:problem=kreska pseudotaktowa	!	!	!	!	!	!	!
2G/	quam	.	.	2b\	quam	4r	.
!	!	!	!	!	!	!LO:TX:t=P:problem=kreska pseudotaktowa	!
.	.	.	.	.	.	4g\	quam
!LO:LB:g=original	!	!	!	!	!	!	!
=18-	=18-	=18-	=18-	=18-	=18-	=18-	=18-
2A/	fe-	0r	.	2cc\	fe-	2e\	fe-
!LO:TX:t=P:problem=kreska pseudotaktowa	!	!	!	!LO:TX:t=P:problem=kreska pseudotaktowa	!	!LO:TX:t=P:problem=kreska pseudotaktowa	!
2B\	-cit	.	.	2b\	-cit	2d\	-cit
2c\	D(o-	.	.	2.a\	D(o-	2e\	Do-
2d\	-mi)-	.	.	.	.	2f\	-mi
*	*	*	*	*	*	*	*Xij
.	.	.	.	4a\	-mi)-	.	.
=19-	=19-	=19-	=19-	=19-	=19-	=19-	=19-
!	!	!	!	!	!	!LO:TX:t=P:problem=defekt źródła	!
1G;>	-nus	1r;<	.	1b;>	-nus	1ryy	-[nus]
*	*Xij	*	*	*	*Xij	*	*
!	!	!	!	!	!	!LO:PB:g=original	!
=20||-	=20||-	=20||-	=20||-	=20||-	=20||-	=20||-	=20||-
*M3/1	*	*M3/1	*	*M3/1	*	*M3/1	*
!LO:TX:b:t=4.	!	!	!	!	!	!	!
00.r	.	0G	E-	0b	E-	0d	E-
*	*	*custos:F	*	*	*	*	*
!	!	!LO:TX:t=P:problem=kreska pseudotaktowa	!	!	!	!	!
!	!	!	!	!LO:TX:t=P:problem=kreska pseudotaktowa	!	!LO:TX:t=P:problem=kreska pseudotaktowa	!
.	.	1C	-xul-	1cc	-xul-	1e	-xul-
!	!	!LO:LB:g=original	!	!	!	!	!
=21-	=21-	=21-	=21-	=21-	=21-	=21-	=21-
.	.	0F	-te-	0cc	-te-	0f	-te-
*	*	*	*	*custos:dd	*	*	*
!	!	!	!	!LO:TX:t=P:problem=kreska pseudotaktowa	!	!	!
!	!	!LO:TX:t=P:problem=kreska pseudotaktowa	!	!	!	!LO:TX:t=P:problem=kreska pseudotaktowa	!
.	.	1G	-mus	1b	-mus	1d	-mus
!	!	!	!	!LO:LB:g=original	!	!	!
=22-	=22-	=22-	=22-	=22-	=22-	=22-	=22-
!LO:TX:t=P:problem=kreska pseudotaktowa	!	!	!	!	!	!	!
00.r	.	1.D	et	1.dd	et	1.f	et
.	.	2E\	lae-	2b\	lae-	2e\	lae-
!	!	!LO:TX:t=P:problem=kreska pseudotaktowa	!	!LO:TX:t=P:problem=kreska pseudotaktowa	!	!LO:TX:t=P:problem=kreska pseudotaktowa	!
.	.	1C	-te-	1cc	-te-	1e	-te-
=23-	=23-	=23-	=23-	=23-	=23-	=23-	=23-
!	!	!LO:TX:t=P:problem=kreska pseudotaktowa	!	!LO:TX:t=P:problem=kreska pseudotaktowa	!	!LO:TX:t=P:problem=kreska pseudotaktowa	!
.	.	0.G,	-mur	0.b	-mur	0.d	-mur
=24-	=24-	=24-	=24-	=24-	=24-	=24-	=24-
*	*	*	*ij	*	*ij	*	*ij
0c	E-	0C	E-	0ee	E-	0g	E-
!LO:TX:t=P:problem=kreska pseudotaktowa	!	!LO:TX:t=P:problem=kreska pseudotaktowa	!	!	!	!	!
1d	-xul-	1BB	-xul-	1dd	-xul-	1g	-xul-
=25-	=25-	=25-	=25-	=25-	=25-	=25-	=25-
0c	-te-	0C	-te-	0ee	-te-	0g	-te-
!LO:TX:t=P:problem=kreska pseudotaktowa	!	!LO:TX:t=P:problem=kreska pseudotaktowa	!	!LO:TX:t=P:problem=kreska pseudotaktowa	!	!LO:TX:t=P:problem=kreska pseudotaktowa	!
1B	-mus	1G	-mus	1dd	-mus	1g	-mus
=26-	=26-	=26-	=26-	=26-	=26-	=26-	=26-
1.A	et	1.F	et	1.ff	et	1.c	et
2B\	.	2G\	lae-	2dd\	lae-	2g\	lae-
!LO:TX:t=P:problem=kreska pseudotaktowa	!	!LO:TX:t=P:problem=kreska pseudotaktowa	!	!LO:TX:t=P:problem=kreska pseudotaktowa	!	!	!
1c	lae-	1A	-te-	1cc	-te-	1e	-te-
=27-	=27-	=27-	=27-	=27-	=27-	=27-	=27-
*	*	*	*	*	*	*custos:g	*
0B	-te-	0G	-mur	0dd,	-mur	0g	-mur
*	*	*	*Xij	*	*Xij	*	*Xij
!	!	!	!	!	!	!LO:LB:g=original	!
!LO:TX:t=P:problem=kreska pseudotaktowa	!	!LO:TX:t=P:problem=kreska pseudotaktowa	!	!LO:TX:t=P:problem=kreska pseudotaktowa	!	!LO:TX:t=P:problem=kreska pseudotaktowa	!
1c	-mur	1C	in	1ee	in	1g	in
=28-	=28-	=28-	=28-	=28-	=28-	=28-	=28-
!LO:SIC:v:s=1.d	!	!	!	!	!	!	!
1.B	.	0.D	e-	0.dd	e-	1.f	e-
!LO:SIC:v:s=2c	!	!	!	!	!	!	!
2A/	in	.	.	.	.	2e\	.
!LO:SIC:v:s=1d	!	!	!	!	!	!	!
1B	e-	.	.	.	.	1f	.
=29-	=29-	=29-	=29-	=29-	=29-	=29-	=29-
*M2/1	*	*M2/1	*	*M2/1	*	*M2/1	*
*met(C|)	*	*met(C|)	*	*met(C|)	*	*met(C|)	*
*custos:G	*	*	*	*	*	*	*
!LO:SIC:v:s=2B	!	!LO:TX:t=P:problem=kreska pseudotaktowa	!	!	!	!	!
!	!	!LO:TX:b:t=prosty takt	!	!	!	!	!
2A/	-a	1GG;>	-a	2dd,\	-a	1.g	-a
!LO:LB:g=original	!	!	!	!	!	!	!
4.G/	et	.	.	4.b\	et	.	.
!LO:TX:t=P:problem=kreska pseudotaktowa	!	!	!	!LO:TX:t=P:problem=kreska pseudotaktowa	!	!	!
8A/	lae-	.	.	8cc\	lae-	.	.
*	*	*custos:C	*	*	*	*	*
!	!	!LO:TX:t=P:problem=kreska pseudotaktowa	!	!	!	!	!
2B\	-te-	0r	.	2dd\	-te-	.	.
4c\	-mur	.	.	4cc\	-mur	4e\	et
*	*	*	*	*custos:a	*	*	*
!	!	!	!	!LO:TX:t=P:problem=kreska pseudotaktowa	!	!	!
!LO:TX:t=P:problem=kreska pseudotaktowa	!	!	!	!	!	!LO:TX:t=P:problem=kreska pseudotaktowa	!
4A/	in	.	.	4cc\	in	4e\	lae-
!	!	!	!	!LO:PB:g=original	!	!	!
=30-	=30-	=30-	=30-	=30-	=30-	=30-	=30-
2d\	e-	.	.	2a\	e-	2f\	-te-
!LO:TX:t=P:problem=kreska pseudotaktowa	!	!	!	!LO:TX:t=P:problem=kreska pseudotaktowa	!	!LO:TX:t=P:problem=kreska pseudotaktowa	!
2G/	-a	.	.	2g/	-a	2d\	-mur
!	!	!LO:LB:g=original	!	!	!	!	!
*	*ij	*	*	*	*	*	*ij
4c\	et	4.C/	et	1r	.	4.e\	et
4A/	lae-	.	.	.	.	.	.
.	.	8D/	lae-	.	.	8f\	lae-
!LO:TX:t=P:problem=kreska pseudotaktowa	!	!LO:TX:t=P:problem=kreska pseudotaktowa	!	!	!	!LO:TX:t=P:problem=kreska pseudotaktowa	!
2G/	-te-	2E\	-te-	.	.	2g\	-te-
=31-	=31-	=31-	=31-	=31-	=31-	=31-	=31-
2c\	-mur	4C/	-mur	4.g/	et	2e\	-mur
.	.	4C/	in	.	.	.	.
.	.	.	.	8a\	lae-	.	.
!	!	!LO:TX:t=P:problem=kreska pseudotaktowa	!	!LO:TX:t=P:problem=kreska pseudotaktowa	!	!	!
4.B\	in	2G\	e-	2b\	-te-	4.d\	et
!LO:TX:t=P:problem=kreska pseudotaktowa	!	!	!	!	!	!LO:TX:t=P:problem=kreska pseudotaktowa	!
8c\	.	.	.	.	.	8e\	lae-
2d\	e-	2D,/	-a	2a\	-mur	2f\	-te-
*	*	*	*	*	*ij	*	*
!LO:TX:t=P:problem=kreska pseudotaktowa	!	!	!	!	!	!LO:TX:t=P:problem=kreska pseudotaktowa	!
2c\	-a	4.F\	et	4.a\	et	2f\	-mur
!	!	!LO:TX:t=P:problem=kreska pseudotaktowa	!	!LO:TX:t=P:problem=kreska pseudotaktowa	!	!	!
.	.	8G\	lae-	8b\	lae-	.	.
=32-	=32-	=32-	=32-	=32-	=32-	=32-	=32-
2r	.	2A\	-te-	2cc\	-te-	4.e\	et
.	.	.	.	.	.	8f\	lae-
!	!	!LO:TX:t=P:problem=kreska pseudotaktowa	!	!LO:TX:t=P:problem=kreska pseudotaktowa	!	!LO:TX:t=P:problem=kreska pseudotaktowa	!
4.B\	et	2G\	-mur	2b\	-mur	2g\	-te-
!LO:TX:t=P:problem=kreska pseudotaktowa	!	!	!	!	!	!	!
8c\	lae-	.	.	.	.	.	.
*	*	*	*	*	*	*custos:d	*
*	*	*	*ij	*	*	*	*
2d\	-te-	4.GG/	et	4.b\	et	2g\	-mur
.	.	8AA/	lae-	8cc\	lae-	.	.
!	!	!	!	!	!	!LO:LB:g=original	!
!	!	!LO:TX:t=P:problem=kreska pseudotaktowa	!	!LO:TX:t=P:problem=kreska pseudotaktowa	!	!	!
1G/	-mur	2BB/	-te-	2dd\	-te-	4d\	et
!	!	!	!	!	!	!LO:TX:t=P:problem=kreska pseudotaktowa	!
.	.	.	.	.	.	4d\	lae-
=33-	=33-	=33-	=33-	=33-	=33-	=33-	=33-
.	.	2C/	-mur	2cc\	-mur	2e\	-te-
*	*	*	*Xij	*	*Xij	*	*
2G/	in	2GG/	in	4b\	.	4d\	-mur
*	*	*	*	*	*	*	*Xij
!	!	!	!	!	!	!LO:TX:t=P:problem=kreska pseudotaktowa	!
.	.	.	.	2g/	in	4d\	in
!	!	!LO:TX:t=P:problem=kreska pseudotaktowa	!	!	!	!	!
1A	e-	1D	e-	.	.	1d	e-
.	.	.	.	8f#X/L	e-	.	.
.	.	.	.	8e/J	.	.	.
.	.	.	.	2f#X/	-a	.	.
=34-	=34-	=34-	=34-	=34-	=34-	=34-	=34-
!LO:TX:t=Haec dies\nrepete Largo	!	!LO:TX:t=P:problem=napis "Haec dies repete Largo" za kreską na pięciolinii	!	!LO:TX:t=Haec dies\nrepete Largo	!	!LO:TX:t=Haec dies repete Largo	!
!LO:TX:t=P:problem=napis "Haec dies repete Largo" za kreską na pięciolinii	!	!LO:TX:t=Haec dies\nrepete Largo	!	!LO:TX:t=P:problem=napis "Haec dies repete Largo" za kreską na pięciolinii	!	!LO:TX:t=P:problem=napis "Haec dies repete Largo" za kreską na pięciolinii	!
0G;;	-a	0GG;>	-a	0g;>	.	0d;;	-a
*	*Xij	*	*	*	*	*	*
==	==	==	==	==	==	==	==
*-	*-	*-	*-	*-	*-	*-	*-
!!!system-decoration: [(s1,s2,s3,s4)]
!!!RDF**kern: > = above
!!!RDF**kern: < = below
!!!EED: Mateusz Mrugas
!!!EEV: 2021-03-27
!!!ENC: Kamil Watkowski
!!!END: 2021-03-21
